docs/public/static/readme/netlify-darkmode.svg

<svg fill="none" height="49" viewBox="0 0 180 49" width="180" xmlns="http://www.w3.org/2000/svg" xmlns:xlink="http://www.w3.org/1999/xlink"><radialGradient id="a" cx="0" cy="0" gradientTransform="matrix(0 46.8991 -54.1468 0 -1.41665 23.828)" gradientUnits="userSpaceOnUse" r="1"><stop offset="0" stop-color="#20c6b7"/><stop offset="1" stop-color="#4d9abf"/></radialGradient><clipPath id="b"><path d="m0 0h180v48.9796h-180z"/></clipPath><g clip-path="url(#b)"><path clip-rule="evenodd" d="m65.351 15.8914.1506 2.6914c1.718-2.0816 3.9735-3.1224 6.7653-3.1224 4.838 0 7.3004 2.7771 7.3862 8.3314v15.3894h-5.2164v-15.0881c0-1.478-.3183-2.5715-.9551-3.2829-.6367-.7102-1.6787-1.0653-3.1249-1.0653-2.1049 0-3.6734.9551-4.702 2.8628v16.5735h-5.2188v-23.2898h4.9176zm29.8506 23.7208c-3.3061 0-5.9877-1.0432-8.0412-3.131-2.0547-2.0877-3.082-4.8686-3.082-8.3412v-.6453c0-2.3241.4469-4.4021 1.342-6.2314.8939-1.8294 2.1514-3.2535 3.769-4.2735 1.6175-1.0176 3.4212-1.527 5.4122-1.527 3.1629 0 5.6084 1.0115 7.3324 3.0343 1.726 2.0241 2.588 4.8857 2.588 8.5886v2.1098h-15.1832c.1592 1.9224.7983 3.4433 1.9224 4.5624 1.1241 1.1192 2.5384 1.6788 4.2417 1.6788 2.3902 0 4.3371-.9673 5.8411-2.9057l2.812 2.6914c-.93 1.3911-2.172 2.4711-3.725 3.2388-1.5535.7678-3.2959 1.151-5.2281 1.151zm-.622-19.9518c-1.4327 0-2.5874.502-3.4678 1.5061-.8816 1.0041-1.4424 2.4037-1.6861 4.1976h9.9429v-.3882c-.1151-1.751-.5804-3.0735-1.3959-3.971-.8168-.8963-1.947-1.3445-3.3931-1.3445zm20.5284-9.4286v5.6608h4.102v3.8743h-4.102v13.0004c0 .889.176 1.5306.527 1.9262.35.3942.977.5914 1.879.5914.615-.0017 1.227-.074 1.825-.2155v4.0469c-1.188.3306-2.333.4947-3.436.4947-4.008 0-6.012-2.2163-6.012-6.6502v-13.1951h-3.826v-3.8743h3.823v-5.6608h5.218zm13.637 28.9506h-5.218v-33.06119h5.218zm11.231 0h-5.218v-23.2898h5.218zm-5.54-29.33874c0-.80204.253-1.46939.761-2.00081.51-.53021 1.236-.79592 2.18-.79592.945 0 1.675.26571 2.192.79592.514.53142.771 1.19877.771 2.00204 0 .78861-.257 1.44491-.771 1.96901-.517.524-1.247.7861-2.192.7861-.944 0-1.67-.2621-2.18-.7861-.508-.5229-.761-1.1804-.761-1.96901zm13.056 29.33874v-19.4167h-3.543v-3.8743h3.543v-2.1306c0-2.5837.715-4.57714 2.147-5.98408 1.432-1.40571 3.436-2.10857 6.012-2.10857.917 0 1.891.12857 2.922.38694l-.129 4.08981c-.658-.1222-1.327-.17965-1.997-.17144-2.492 0-3.737 1.28324-3.737 3.85224v2.0657h4.724v3.8743h-4.724v19.4155h-5.218zm21.882-7.4902 4.724-15.7996h5.562l-9.233 26.82c-1.418 3.9172-3.823 5.8764-7.216 5.8764-.759 0-1.597-.1298-2.513-.3882v-4.0469l.989.0649c1.316 0 2.308-.24 2.974-.7213.665-.48 1.191-1.2869 1.578-2.4208l.751-2.002-8.16-23.1821h5.626z" fill="#fff" fill-rule="evenodd"/><path d="m34.1473 17.3082-.0171-.0074c-.0098-.0037-.0196-.0073-.0282-.0159-.014-.0151-.0244-.0332-.0304-.053-.0059-.0197-.0072-.0405-.0038-.0609l.9465-5.7869 4.4388 4.44-4.6164 1.9641c-.0128.0051-.0265.0076-.0404.0073h-.0183c-.0062-.0037-.0123-.0086-.0245-.0208-.1718-.1913-.3773-.3494-.6062-.4665zm6.4384-.3527 4.7461 4.7461c.9857.987 1.4792 1.4792 1.6592 2.0498.027.0845.049.169.0661.2559l-11.3424-4.8036c-.0061-.0025-.0122-.005-.0184-.0074-.0453-.0183-.0979-.0392-.0979-.0857s.0538-.0686.0992-.0869l.0146-.0062zm6.278 8.5751c-.2449.4604-.7225.938-1.5306 1.7474l-5.3511 5.3498-6.9208-1.4413-.0367-.0073c-.0612-.0098-.1261-.0208-.1261-.0759-.0263-.2855-.1111-.5626-.2491-.8139s-.3262-.4715-.553-.647c-.0281-.0281-.0208-.0722-.0122-.1126 0-.0061 0-.0123.0024-.0172l1.3017-7.991.0049-.0269c.0073-.0612.0183-.1323.0734-.1323.279-.0347.5482-.1245.7921-.2643.2438-.1398.4574-.3268.6283-.5499.0111-.0123.0184-.0258.0331-.0331.0392-.0184.0857 0 .1261.0171l11.8163 4.9984zm-8.1123 8.3278-8.7992 8.7991 1.5062-9.2571.0024-.0122c.0012-.0123.0037-.0245.0074-.0355.0122-.0294.044-.0417.0747-.0539l.0147-.0062c.3297-.1407.6214-.3576.851-.633.0294-.0343.0649-.0674.1102-.0735.0117-.0019.0237-.0019.0355 0l6.1959 1.2735zm-10.6616 10.6616-.9918.9918-10.9653-15.8473c-.004-.0058-.0081-.0115-.0123-.0172-.0171-.0232-.0355-.0465-.0318-.0734 0-.0196.0134-.0368.0269-.0515l.0123-.0159c.033-.049.0612-.0979.0918-.1506l.0245-.0428.0037-.0037c.0171-.0294.033-.0576.0624-.0735.0257-.0122.0612-.0073.0894-.0012l12.1482 2.5053c.0339.0053.066.0192.093.0404.0159.0159.0196.0331.0233.0527.0847.3206.2424.6173.4608.8668.2183.2496.4914.4453.798.5719.0342.0172.0196.0551.0036.0955-.0079.0178-.0141.0362-.0183.0551-.1531.9307-1.4657 8.9364-1.8184 11.0976zm-2.0718 2.0706c-.7311.7237-1.1621 1.1069-1.6494 1.2612-.4805.152-.9962.152-1.4768 0-.5706-.1812-1.064-.6734-2.0498-1.6604l-11.0118-11.0118 2.8763-4.4608c.0135-.0221.027-.0417.049-.0576.0306-.022.0747-.0122.1114 0 .6602.1992 1.3691.1633 2.0058-.1016.033-.0123.0661-.0208.0918.0024.0128.0118.0243.0249.0343.0392l11.0192 15.9906zm-17.24943-12.4726-2.52612-2.5262 4.98855-2.1281c.0128-.0056.0265-.0085.0404-.0086.0417 0 .0662.0416.0882.0796.0501.0771.1032.1523.1592.2253l.0159.0196c.0147.0208.0049.0416-.0098.0612l-2.7551 4.2772zm-3.64408-3.6441-3.19592-3.1959c-.54367-.5437-.937958-.938-1.212244-1.2772l9.717574 2.0155c.0122.0023.0244.0043.0367.0061.06.0098.1261.0209.1261.0772 0 .0612-.0722.0894-.1334.1126l-.0282.0123zm-4.966531-6.1164c.011074-.2058.048102-.4095.110204-.6061.181225-.5706.673469-1.0628 1.660407-2.0498l4.0898-4.0898c1.88306 2.7329 3.77122 5.4623 5.66453 8.1882.033.0441.0698.0931.0318.1298-.1788.1971-.3576.4126-.4837.6465-.0137.0301-.0347.0562-.0612.0759-.0159.0098-.0331.0062-.0514.0025h-.0025l-10.957941-2.2984zm6.955101-7.8404 5.49674-5.4991c.518.2265 2.4 1.0212 4.0812 1.7314 1.2735.5388 2.4343 1.0286 2.7992 1.1877.0367.0147.0698.0294.0857.0662.0098.022.0049.0502 0 .0734-.087.397-.0741.8093.0377 1.2s.3189.7476.6027 1.0384c.0368.0367 0 .0894-.0318.1347l-.0172.0257-5.5836 8.6486c-.0147.0245-.0282.0453-.0527.0612-.0294.0184-.071.0098-.1053.0012-.2172-.0569-.4404-.0873-.6649-.0906-.2008 0-.4188.0368-.6392.0772h-.0012c-.0245.0036-.0465.0085-.0661-.0062-.0217-.0176-.0403-.0387-.0551-.0624l-5.88736-8.5874zm6.60984-6.60976 7.1191-7.11918c.9858-.98572 1.4792-1.47918 2.0498-1.65918.4806-.151952.9963-.151952 1.4768 0 .5706.18 1.0641.67346 2.0498 1.65918l1.5428 1.54286-5.0632 7.84158c-.0126.0229-.0297.0429-.0502.0588-.0307.0208-.0735.0123-.1102 0-.3992-.1211-.822-.1432-1.2316-.0642-.4096.0789-.7939.2565-1.1195.5173-.033.0343-.082.0147-.1236-.0037-.6613-.2877-5.8041-2.4612-6.54-2.77346zm15.3134-4.50122 4.6751 4.67508-1.1265 6.9772v.0183c-.001.0159-.0043.0316-.0098.0466-.0122.0245-.0367.0293-.0612.0367-.2409.073-.4677.186-.671.3343-.0088.0062-.017.0132-.0245.0208-.0135.0147-.027.0282-.049.0306-.018.0006-.0358-.0023-.0527-.0086l-7.124-3.0269-.0135-.0061c-.0453-.0184-.0992-.0404-.0992-.087-.0419-.397-.1715-.7797-.3796-1.1204-.0343-.0563-.0722-.1151-.0428-.1726zm-4.8147 10.53798 6.6784 2.8285c.0367.0172.0771.0331.0931.0711.0063.0228.0063.0469 0 .0698-.0196.0979-.0368.2094-.0368.322v.1874c0 .0465-.0477.0661-.0918.0844l-.0135.0049c-1.0579.4519-14.853 6.3343-14.8739 6.3343-.0208 0-.0428 0-.0636-.0208-.0368-.0367 0-.0882.033-.1347.0059-.0081.0116-.0162.0172-.0245l5.4881-8.4979.0098-.0147c.0319-.0515.0686-.109.1274-.109l.0551.0086c.1249.0171.2351.033.3465.033.8327 0 1.6041-.4053 2.0694-1.0983.0111-.0185.0252-.0351.0416-.049.0331-.0245.0821-.0123.12.0049zm-7.6481 11.2469 15.0367-6.4126s.022 0 .0429.0208c.082.082.1518.1371.2191.1886l.0331.0208c.0306.0171.0612.0367.0637.0685 0 .0123 0 .0196-.0025.0307l-1.2881 7.9126-.0049.0318c-.0086.0613-.0172.1311-.0747.1311-.3435.0231-.6761.1297-.969.3104-.293.1808-.5374.4302-.7122.7267l-.0062.0098c-.0171.0282-.033.0551-.0612.0698-.0257.0122-.0588.0073-.0857.0012l-11.9914-2.4734c-.0123-.0025-.1862-.6356-.1996-.6368z" fill="url(#a)"/></g></svg>

<svg width="180" height="49" viewBox="0 0 180 49" fill="none" xmlns="http://www.w3.org/2000/svg">
<g clip-path="url(#clip0_3_34)">
<path fill-rule="evenodd" clip-rule="evenodd" d="M65.351 15.8914L65.5016 18.5828C67.2196 16.5012 69.4751 15.4604 72.2669 15.4604C77.1049 15.4604 79.5673 18.2375 79.6531 23.7918V39.1812H74.4367V24.0931C74.4367 22.6151 74.1184 21.5216 73.4816 20.8102C72.8449 20.1 71.8029 19.7449 70.3567 19.7449C68.2518 19.7449 66.6833 20.7 65.6547 22.6077V39.1812H60.4359V15.8914H65.3535H65.351ZM95.2016 39.6122C91.8955 39.6122 89.2139 38.569 87.1604 36.4812C85.1057 34.3935 84.0784 31.6126 84.0784 28.14V27.4947C84.0784 25.1706 84.5253 23.0926 85.4204 21.2633C86.3143 19.4339 87.5718 18.0098 89.1894 16.9898C90.8069 15.9722 92.6106 15.4628 94.6016 15.4628C97.7645 15.4628 100.21 16.4743 101.934 18.4971C103.66 20.5212 104.522 23.3828 104.522 27.0857V29.1955H89.3388C89.498 31.1179 90.1371 32.6388 91.2612 33.7579C92.3853 34.8771 93.7996 35.4367 95.5029 35.4367C97.8931 35.4367 99.84 34.4694 101.344 32.531L104.156 35.2224C103.226 36.6135 101.984 37.6935 100.431 38.4612C98.8775 39.229 97.1351 39.6122 95.2029 39.6122H95.2016ZM94.5796 19.6604C93.1469 19.6604 91.9922 20.1624 91.1118 21.1665C90.2302 22.1706 89.6694 23.5702 89.4257 25.3641H99.3686V24.9759C99.2535 23.2249 98.7882 21.9024 97.9727 21.0049C97.1559 20.1086 96.0257 19.6604 94.5796 19.6604V19.6604ZM115.108 10.2318V15.8926H119.21V19.7669H115.108V32.7673C115.108 33.6563 115.284 34.2979 115.635 34.6935C115.985 35.0877 116.612 35.2849 117.514 35.2849C118.129 35.2832 118.741 35.2109 119.339 35.0694V39.1163C118.151 39.4469 117.006 39.611 115.903 39.611C111.895 39.611 109.891 37.3947 109.891 32.9608V19.7657H106.065V15.8914H109.888V10.2306H115.106L115.108 10.2318ZM128.745 39.1824H123.527V6.12121H128.745V39.1824ZM139.976 39.1824H134.758V15.8926H139.976V39.1824ZM134.436 9.84366C134.436 9.04162 134.689 8.37427 135.197 7.84285C135.707 7.31264 136.433 7.04693 137.377 7.04693C138.322 7.04693 139.052 7.31264 139.569 7.84285C140.083 8.37427 140.34 9.04162 140.34 9.84489C140.34 10.6335 140.083 11.2898 139.569 11.8139C139.052 12.3379 138.322 12.6 137.377 12.6C136.433 12.6 135.707 12.3379 135.197 11.8139C134.689 11.291 134.436 10.6335 134.436 9.84489V9.84366ZM147.492 39.1824V19.7657H143.949V15.8914H147.492V13.7608C147.492 11.1771 148.207 9.18366 149.639 7.77672C151.071 6.37101 153.075 5.66815 155.651 5.66815C156.568 5.66815 157.542 5.79672 158.573 6.05509L158.444 10.1449C157.786 10.0227 157.117 9.96525 156.447 9.97346C153.955 9.97346 152.71 11.2567 152.71 13.8257V15.8914H157.434V19.7657H152.71V39.1812H147.492V39.1824ZM169.374 31.6922L174.098 15.8926H179.66L170.427 42.7126C169.009 46.6298 166.604 48.589 163.211 48.589C162.452 48.589 161.614 48.4592 160.698 48.2008V44.1539L161.687 44.2188C163.003 44.2188 163.995 43.9788 164.661 43.4975C165.326 43.0175 165.852 42.2106 166.239 41.0767L166.99 39.0747L158.83 15.8926H164.456L169.374 31.6922V31.6922Z" fill="white"/>
<path d="M34.1473 17.3082L34.1302 17.3008C34.1204 17.2971 34.1106 17.2935 34.102 17.2849C34.088 17.2698 34.0776 17.2517 34.0716 17.2319C34.0657 17.2122 34.0644 17.1914 34.0678 17.171L35.0143 11.3841L39.4531 15.8241L34.8367 17.7882C34.8239 17.7933 34.8102 17.7958 34.7963 17.7955H34.778C34.7718 17.7918 34.7657 17.7869 34.7535 17.7747C34.5817 17.5834 34.3762 17.4253 34.1473 17.3082V17.3082ZM40.5857 16.9555L45.3318 21.7016C46.3175 22.6886 46.811 23.1808 46.991 23.7514C47.018 23.8359 47.04 23.9204 47.0571 24.0073L35.7147 19.2037C35.7086 19.2012 35.7025 19.1987 35.6963 19.1963C35.651 19.178 35.5984 19.1571 35.5984 19.1106C35.5984 19.0641 35.6522 19.042 35.6976 19.0237L35.7122 19.0175L40.5857 16.9555V16.9555ZM46.8637 25.5306C46.6188 25.991 46.1412 26.4686 45.3331 27.278L39.982 32.6278L33.0612 31.1865L33.0245 31.1792C32.9633 31.1694 32.8984 31.1584 32.8984 31.1033C32.8721 30.8178 32.7873 30.5407 32.6493 30.2894C32.5113 30.0381 32.3231 29.8179 32.0963 29.6424C32.0682 29.6143 32.0755 29.5702 32.0841 29.5298C32.0841 29.5237 32.0841 29.5175 32.0865 29.5126L33.3882 21.5216L33.3931 21.4947C33.4004 21.4335 33.4114 21.3624 33.4665 21.3624C33.7455 21.3277 34.0147 21.2379 34.2586 21.0981C34.5024 20.9583 34.716 20.7713 34.8869 20.5482C34.898 20.5359 34.9053 20.5224 34.92 20.5151C34.9592 20.4967 35.0057 20.5151 35.0461 20.5322L46.8624 25.5306H46.8637ZM38.7514 33.8584L29.9522 42.6575L31.4584 33.4004L31.4608 33.3882C31.462 33.3759 31.4645 33.3637 31.4682 33.3527C31.4804 33.3233 31.5122 33.311 31.5429 33.2988L31.5576 33.2926C31.8873 33.1519 32.179 32.935 32.4086 32.6596C32.438 32.6253 32.4735 32.5922 32.5188 32.5861C32.5305 32.5842 32.5425 32.5842 32.5543 32.5861L38.7502 33.8596L38.7514 33.8584ZM28.0898 44.52L27.098 45.5118L16.1327 29.6645C16.1287 29.6587 16.1246 29.653 16.1204 29.6473C16.1033 29.6241 16.0849 29.6008 16.0886 29.5739C16.0886 29.5543 16.102 29.5371 16.1155 29.5224L16.1278 29.5065C16.1608 29.4575 16.189 29.4086 16.2196 29.3559L16.2441 29.3131L16.2478 29.3094C16.2649 29.28 16.2808 29.2518 16.3102 29.2359C16.3359 29.2237 16.3714 29.2286 16.3996 29.2347L28.5478 31.74C28.5817 31.7453 28.6138 31.7592 28.6408 31.7804C28.6567 31.7963 28.6604 31.8135 28.6641 31.8331C28.7488 32.1537 28.9065 32.4504 29.1249 32.6999C29.3432 32.9495 29.6163 33.1452 29.9229 33.2718C29.9571 33.289 29.9425 33.3269 29.9265 33.3673C29.9186 33.3851 29.9124 33.4035 29.9082 33.4224C29.7551 34.3531 28.4425 42.3588 28.0898 44.52ZM26.018 46.5906C25.2869 47.3143 24.8559 47.6975 24.3686 47.8518C23.8881 48.0038 23.3724 48.0038 22.8918 47.8518C22.3212 47.6706 21.8278 47.1784 20.842 46.1914L9.8302 35.1796L12.7065 30.7188C12.72 30.6967 12.7335 30.6771 12.7555 30.6612C12.7861 30.6392 12.8302 30.649 12.8669 30.6612C13.5271 30.8604 14.236 30.8245 14.8727 30.5596C14.9057 30.5473 14.9388 30.5388 14.9645 30.562C14.9773 30.5738 14.9888 30.5869 14.9988 30.6012L26.018 46.5918V46.5906ZM8.76857 34.118L6.24245 31.5918L11.231 29.4637C11.2438 29.4581 11.2575 29.4552 11.2714 29.4551C11.3131 29.4551 11.3376 29.4967 11.3596 29.5347C11.4097 29.6118 11.4628 29.687 11.5188 29.76L11.5347 29.7796C11.5494 29.8004 11.5396 29.8212 11.5249 29.8408L8.7698 34.118H8.76857ZM5.12449 30.4739L1.92857 27.278C1.3849 26.7343 0.990612 26.34 0.716326 26.0008L10.4339 28.0163C10.4461 28.0186 10.4583 28.0206 10.4706 28.0224C10.5306 28.0322 10.5967 28.0433 10.5967 28.0996C10.5967 28.1608 10.5245 28.189 10.4633 28.2122L10.4351 28.2245L5.12449 30.4739ZM0.157959 24.3575C0.169033 24.1517 0.206061 23.948 0.268163 23.7514C0.449388 23.1808 0.941632 22.6886 1.92857 21.7016L6.01837 17.6118C7.90143 20.3447 9.78959 23.0741 11.6829 25.8C11.7159 25.8441 11.7527 25.8931 11.7147 25.9298C11.5359 26.1269 11.3571 26.3424 11.231 26.5763C11.2173 26.6064 11.1963 26.6325 11.1698 26.6522C11.1539 26.662 11.1367 26.6584 11.1184 26.6547H11.1159L0.157959 24.3563V24.3575ZM7.11306 16.5171L12.6098 11.018C13.1278 11.2445 15.0098 12.0392 16.691 12.7494C17.9645 13.2882 19.1253 13.778 19.4902 13.9371C19.5269 13.9518 19.56 13.9665 19.5759 14.0033C19.5857 14.0253 19.5808 14.0535 19.5759 14.0767C19.4889 14.4737 19.5018 14.886 19.6136 15.2767C19.7254 15.6674 19.9325 16.0243 20.2163 16.3151C20.2531 16.3518 20.2163 16.4045 20.1845 16.4498L20.1673 16.4755L14.5837 25.1241C14.569 25.1486 14.5555 25.1694 14.531 25.1853C14.5016 25.2037 14.46 25.1951 14.4257 25.1865C14.2085 25.1296 13.9853 25.0992 13.7608 25.0959C13.56 25.0959 13.342 25.1327 13.1216 25.1731H13.1204C13.0959 25.1767 13.0739 25.1816 13.0543 25.1669C13.0326 25.1493 13.014 25.1282 12.9992 25.1045L7.11184 16.5171H7.11306ZM13.7229 9.90734L20.842 2.78816C21.8278 1.80244 22.3212 1.30898 22.8918 1.12898C23.3724 0.977028 23.8881 0.977028 24.3686 1.12898C24.9392 1.30898 25.4327 1.80244 26.4184 2.78816L27.9612 4.33102L22.898 12.1726C22.8854 12.1955 22.8683 12.2155 22.8478 12.2314C22.8171 12.2522 22.7743 12.2437 22.7376 12.2314C22.3384 12.1103 21.9156 12.0882 21.506 12.1672C21.0964 12.2461 20.7121 12.4237 20.3865 12.6845C20.3535 12.7188 20.3045 12.6992 20.2629 12.6808C19.6016 12.3931 14.4588 10.2196 13.7229 9.90734V9.90734ZM29.0363 5.40612L33.7114 10.0812L32.5849 17.0584V17.0767C32.5839 17.0926 32.5806 17.1083 32.5751 17.1233C32.5629 17.1478 32.5384 17.1526 32.5139 17.16C32.273 17.233 32.0462 17.346 31.8429 17.4943C31.8341 17.5005 31.8259 17.5075 31.8184 17.5151C31.8049 17.5298 31.7914 17.5433 31.7694 17.5457C31.7514 17.5463 31.7336 17.5434 31.7167 17.5371L24.5927 14.5102L24.5792 14.5041C24.5339 14.4857 24.48 14.4637 24.48 14.4171C24.4381 14.0201 24.3085 13.6374 24.1004 13.2967C24.0661 13.2404 24.0282 13.1816 24.0576 13.1241L29.0363 5.40612V5.40612ZM24.2216 15.9441L30.9 18.7726C30.9367 18.7898 30.9771 18.8057 30.9931 18.8437C30.9994 18.8665 30.9994 18.8906 30.9931 18.9135C30.9735 19.0114 30.9563 19.1229 30.9563 19.2355V19.4229C30.9563 19.4694 30.9086 19.489 30.8645 19.5073L30.851 19.5122C29.7931 19.9641 15.998 25.8465 15.9771 25.8465C15.9563 25.8465 15.9343 25.8465 15.9135 25.8257C15.8767 25.789 15.9135 25.7375 15.9465 25.691C15.9524 25.6829 15.9581 25.6748 15.9637 25.6665L21.4518 17.1686L21.4616 17.1539C21.4935 17.1024 21.5302 17.0449 21.589 17.0449L21.6441 17.0535C21.769 17.0706 21.8792 17.0865 21.9906 17.0865C22.8233 17.0865 23.5947 16.6812 24.06 15.9882C24.0711 15.9697 24.0852 15.9531 24.1016 15.9392C24.1347 15.9147 24.1837 15.9269 24.2216 15.9441V15.9441ZM16.5735 27.191L31.6102 20.7784C31.6102 20.7784 31.6322 20.7784 31.6531 20.7992C31.7351 20.8812 31.8049 20.9363 31.8722 20.9878L31.9053 21.0086C31.9359 21.0257 31.9665 21.0453 31.969 21.0771C31.969 21.0894 31.969 21.0967 31.9665 21.1078L30.6784 29.0204L30.6735 29.0522C30.6649 29.1135 30.6563 29.1833 30.5988 29.1833C30.2553 29.2064 29.9227 29.313 29.6298 29.4937C29.3368 29.6745 29.0924 29.9239 28.9176 30.2204L28.9114 30.2302C28.8943 30.2584 28.8784 30.2853 28.8502 30.3C28.8245 30.3122 28.7914 30.3073 28.7645 30.3012L16.7731 27.8278C16.7608 27.8253 16.5869 27.1922 16.5735 27.191V27.191Z" fill="url(#paint0_radial_3_34)"/>
</g>
<defs>
<radialGradient id="paint0_radial_3_34" cx="0" cy="0" r="1" gradientUnits="userSpaceOnUse" gradientTransform="translate(-1.41665 23.828) rotate(90) scale(46.8991 54.1468)">
<stop stop-color="#20C6B7"/>
<stop offset="1" stop-color="#4D9ABF"/>
</radialGradient>
<clipPath id="clip0_3_34">
<rect width="180" height="48.9796" fill="white"/>
</clipPath>
</defs>
</svg>
